X: 41073
T: Trip To Pakistan, The
R: reel
M: 4/4
K: Eminor
|:Bc|~d3e dcBd|c2cA BGGF|EGBG ~c3d|BAGB A2:|
|:GE|DAAG ~A2cA|~B2dB ceGB|DAAG ABcA|BdcB A2:|

